


do
  d1 $ "cp" # gain "0.8"
  d2 $ n (segment 6 $ irand 4) # s "supervibe"
  d3 $ n (segment 6 $ slow 2 $ irand 4) # s "supervibe"



-- cpu: 0-22

resetCycles


-- How to chop/slice sample without discontinuities? # cut doesn't seem to work...



