
import Prelude hiding (all)

all $ (* gain 0.6)

-- Test.
d1 $ "hc*32"

-- At end of session, restore "all"
all id


-- Template.
let
x = 0
-- pats
finalPat = s "cp"
seqPLoopPat = seqPLoop [
  (0, 900, finalPat),
  (996, 1000, gain "0.8 0.5" # s "hc")
  ]
in do
  hush
  setcps 0.5
  setCycle 0
  d1 $ seqPLoopPat



panic