
import Prelude hiding (all)

all $ (* gain 0.6)

-- Test.
d1 $ "hc*32"

-- At end of session, restore "all"
all id


-- Template.
let
x = 0
in do
  hush
  setcps 0.5
  setCycle 0
  d1 $ "hc"



panic