
-- Template.
let
x = 0
in do
  setcps 0.3
  setCycle 0
  d1 $ "hc"


-- Combining Accelerate with Speed to smoothly slide between notes.
let
x = 0
in do
  setcps 0.4
  setCycle 0
  d1 $ accelerate "[0.7 -0.3]*2" # n "0 12" # s "superchip" # speed "[1 1.7]*2" # legato 1.01






-- Template.
let
x = 0
in do
  setcps 0.6
  setCycle 0
  d1 $ "hc"
  d2 $ gain "[1|2]*4" # n "0" # s "superhammond"





panic