




let
slicePat = fast 4 $ bite 2 "[0 1]*2" $ segment 2 $ irand 32
sectionA = slice 32 slicePat $ s "break:20, break:10" # cut 1
finalPat = seqPLoop [
  (0, 99, sectionA)
  ]
in do
  hush
  setcps 0.5
  setCycle 0
  d1 $ finalPat












