-- c minor arpeggios
let
customScale = toScale [0, 3, 7]
n2 = "[0 1 0]*4" * (segment 4 $ irand 3)
n3 = (~>) (1/3/4) n2
nPat = n (customScale $ "[0 1 2]*4" + n2 + n3) # octave 4
in do
  setcps 0.5
  setCycle 0
  d1 $ "hc"
  d2 $ nPat # s "superhammond" # voice 2
