-- To use freq instead of n, make rand exponential using (hi - lo) * (rand^2) + lo
do
  d1 $ segment 24 $ n (12 * rand) # s "supervibe"
  d2 $ segment 1 $ n (12 * rand) |+ n "-12, 0, 12" # octave 4 # s "supervibe" # legato 1.5

