-- Londynn.
let
loopAts = [ 9/x | x <- [4,5,6] ] -- List comprehension.  Note that [4..6] does not work.
in do
  d1 $ chop 1024 $ loopAt (stack $ loopAts) $ s "londynn" # hpf 1000
  d1 $ chop 1024 $ loopAt (2) $ s "londynn" -- The bass note is from the beginning of each cycle!
  d1 $ loopAt (stack $ loopAts) $ splice 1024 "177..1023" $ s "londynn"
  d1 $ chop 1024 $ loopAt 4 $ s "londynn"