-- sax: 0-21
-- Sax quartet.
let
factory x m = n (segment m $ (slow x $ irand 6) + 6 * (slow 99 $ run 99)) # s "sax" # cut 1 # begin 0.3
m = 11
in do
  d1 $ "cp" # gain "0.8"
  d2 $ factory 1 m
  d3 $ factory 1.1 m
  d4 $ factory 1.2 m
  d5 $ factory 1.3 m
