-- sin
let
bassPat = slow 1 $ n "0 7 12" # octave 4 # s "sin2" # sustain 8
melodyNotes = "0..5"
melodyN = n $ scale "harmonicMinor" $ melodyNotes
melodyPat = melodyN # s "sin2" # gain 0.88
in do
  hush
  setcps 0.3
  setCycle 0
  -- d1 $ "hc" # gain 0.8
  d2 $ bassPat
  d3 $ melodyPat

